X:45
T:Gan Ainm
Z: id:dc-jig-168
M:6/8
L:1/8
K:G Major
D|DEF G2A|BAG ABc|d2d faf|dfd cAF|!
DEF G2A|BAG ABc|d2d fed|cAF G2:|!
D|GBd g3|dgb gdB|GBd g2e|fed cAF|!
GBd g3|dgb gdB|GBd fed|cAF G2:|!

